icon/pk/cell.svg

<svg viewBox="0 0 48 48" fill="none" xmlns="http://www.w3.org/2000/svg" height="1em" width="1em">
  <path d="M28.4165 21.8466C28.2998 24.4327 28.9576 26.2456 30.3899 27.2851C32.5385 28.8445 37.8372 29.0273 42.0342 21.8466C46.2313 14.6658 42.1598 10.7653 40.6133 10.1148C39.5823 9.68111 38.546 9.51854 37.5044 9.62707" stroke="black" stroke-width="4.42105" stroke-linecap="round"/>
  <path d="M31.0138 28.0061C29.7932 29.4196 29.6591 31.1176 30.6115 33.1C32.0401 36.0735 35.6988 35.5388 37.5277 38.0157C38.747 39.6671 39.2088 41.3285 38.9132 43" stroke="black" stroke-width="4.42105" stroke-linecap="round"/>
  <path fill-rule="evenodd" clip-rule="evenodd" d="M8.50434 23.6397C10.7641 26.6609 16.1663 27.0551 22.5 24.6306C25.0645 23.649 27.7817 22.2052 30.5049 20.2867C32.5577 18.8404 34.0451 17.3644 35.0919 15.92C38.8633 10.716 36.9159 5.92222 35.0919 4.40635C33.1156 2.76399 29.322 2.08888 22.5 5.03345C21.2777 5.56103 19.9582 6.20481 18.5345 6.98005C15.7374 8.50312 13.4336 10.2232 11.6622 11.9999C7.4997 16.1749 6.27733 20.6622 8.50434 23.6397Z" fill="#2F88FF" stroke="black" stroke-width="4.42105"/>
  <path d="M16.2451 8.83911C16.6842 11.7889 17.9165 14.368 19.9419 16.5764C21.9673 18.7848 24.3883 20.195 28 21.4999" stroke="white" stroke-width="4.42105" stroke-linecap="round"/>
  <path d="M9.98149 24.9998C4.15571 30.6503 2.58552 34.9286 5.27092 37.8346C9.29902 42.1936 13.0878 36.6267 18.1666 36.6267C21.5524 36.6267 24.1636 38.751 26 42.9998" stroke="black" stroke-width="4.42105" stroke-linecap="round"/>
  <path d="M35.0919 15.9199C34.0451 17.3643 32.5577 18.8403 30.5049 20.2866C27.7817 22.2052 25.0645 23.6489 22.5 24.6306" stroke="black" stroke-width="4.42105" stroke-linecap="round"/>
  <path d="M22.4999 5.03345C21.2776 5.56103 19.9581 6.20481 18.5344 6.98004C15.7374 8.50312 13.4335 10.2232 11.6621 11.9999" stroke="black" stroke-width="4.42105" stroke-linecap="round"/>
</svg>

<svg width="48" height="48" fill="none" xmlns="http://www.w3.org/2000/svg"><path d="M28.416 21.847c-.116 2.586.542 4.399 1.974 5.438 2.148 1.56 7.447 1.742 11.644-5.438 4.197-7.181.126-11.082-1.42-11.732-1.032-.434-2.068-.596-3.11-.488M31.014 28.006c-1.22 1.414-1.355 3.112-.402 5.094 1.428 2.974 5.087 2.439 6.916 4.916 1.219 1.651 1.68 3.313 1.385 4.984" stroke="#000" stroke-width="4.421" stroke-linecap="round"/><path fill-rule="evenodd" clip-rule="evenodd" d="M8.504 23.64c2.26 3.02 7.662 3.415 13.996.99 2.564-.981 5.282-2.425 8.005-4.343 2.053-1.447 3.54-2.923 4.587-4.367 3.771-5.204 1.824-9.998 0-11.514-1.976-1.642-5.77-2.317-12.592.627a48.607 48.607 0 0 0-3.965 1.947c-2.798 1.523-5.101 3.243-6.873 5.02-4.162 4.175-5.385 8.662-3.158 11.64Z" fill="#2F88FF" stroke="#000" stroke-width="4.421"/><path d="M16.245 8.84c.44 2.949 1.671 5.528 3.697 7.736 2.025 2.209 4.446 3.619 8.058 4.924" stroke="#fff" stroke-width="4.421" stroke-linecap="round"/><path d="M9.981 25c-5.825 5.65-7.395 9.929-4.71 12.835 4.028 4.359 7.817-1.208 12.896-1.208 3.385 0 5.997 2.124 7.833 6.373M35.092 15.92c-1.047 1.444-2.534 2.92-4.587 4.367-2.723 1.918-5.44 3.362-8.005 4.344M22.5 5.033a48.61 48.61 0 0 0-3.966 1.947c-2.797 1.523-5.1 3.243-6.872 5.02" stroke="#000" stroke-width="4.421" stroke-linecap="round"/></svg>
